svg/N_Arrows/14.svg

<svg xmlns="http://www.w3.org/2000/svg" viewBox="0 0 744.09 1052.36"><g font-family="Arial Black" font-size="56"><text y="413.28" x="274.07"><tspan y="413.28" x="274.07">N</tspan></text><text y="549.09" x="410.18"><tspan y="549.09" x="410.18">E</tspan></text></g><g stroke="#000"><g fill="none"><g stroke-linecap="square"><path d="M545.48238 517.99152A79.80205 79.80205 0 1 1 385.87828 517.99152 79.80205 79.80205 0 1 1 545.48238 517.99152z" transform="matrix(.75939 0 0 .72265-57.17 152.09)" opacity=".97" stroke-width="26.549"/><path d="M545.48238 517.99152A79.80205 79.80205 0 1 1 385.87828 517.99152 79.80205 79.80205 0 1 1 545.48238 517.99152z" transform="matrix(.18438 0 0 .16551 211.21 441.61)" opacity=".97" stroke-width="70.65"/></g><g fill-rule="evenodd" stroke-width="5.5"><path d="m296.73 544.41v39.648"/><path d="m296.43 468.61v39.648"/><path d="m354.47 527.72h-39.648"/><path d="m277.4 526.65h-39.648"/><path d="m257.75 487.63l28.04 28.04"/><path d="m309.21 537.99l28.04 28.04"/><path d="m285.79 534.06l-28.04 28.04"/><path d="m337.25 486.2l-28.04 28.04"/></g></g><g fill-rule="evenodd" stroke-width="2.532"><path d="m286.27 459.2v-28.945l11.08-14.472 11.08 14.472v28.945h-22.15z"/><path d="m365.32 518.63h28.945l14.472 11.08-14.472 11.08h-28.945v-22.15z"/><path d="m307.56 589.72v28.945l-11.08 14.472-11.08-14.472v-28.945h22.15z"/><path d="m227.78 537.65h-28.945l-14.472-11.08 14.472-11.08h28.945v22.15z"/></g></g></svg>

<?xml version="1.0" encoding="UTF-8" standalone="no"?>
<!-- Created with Inkscape (http://www.inkscape.org/) -->
<svg
   xmlns:dc="http://purl.org/dc/elements/1.1/"
   xmlns:cc="http://web.resource.org/cc/"
   xmlns:rdf="http://www.w3.org/1999/02/22-rdf-syntax-ns#"
   xmlns:svg="http://www.w3.org/2000/svg"
   xmlns="http://www.w3.org/2000/svg"
   xmlns:sodipodi="http://sodipodi.sourceforge.net/DTD/sodipodi-0.dtd"
   xmlns:inkscape="http://www.inkscape.org/namespaces/inkscape"
   width="744.09448819"
   height="1052.3622047"
   id="svg2"
   sodipodi:version="0.32"
   inkscape:version="0.44.1"
   sodipodi:docbase="F:\QGIS_N_ARROWS\NORD_EST"
   sodipodi:docname="FINALE1.svg">
  <defs
     id="defs4" />
  <sodipodi:namedview
     id="base"
     pagecolor="#ffffff"
     bordercolor="#666666"
     borderopacity="1.0"
     inkscape:pageopacity="0.0"
     inkscape:pageshadow="2"
     inkscape:zoom="0.7"
     inkscape:cx="390.40483"
     inkscape:cy="520"
     inkscape:document-units="px"
     inkscape:current-layer="layer1"
     showgrid="true"
     inkscape:window-width="1280"
     inkscape:window-height="744"
     inkscape:window-x="-4"
     inkscape:window-y="-4" />
  <metadata
     id="metadata7">
    <rdf:RDF>
      <cc:Work
         rdf:about="">
        <dc:format>image/svg+xml</dc:format>
        <dc:type
           rdf:resource="http://purl.org/dc/dcmitype/StillImage" />
      </cc:Work>
    </rdf:RDF>
  </metadata>
  <g
     inkscape:label="Livello 1"
     inkscape:groupmode="layer"
     id="layer1">
    <g
       id="g8480">
      <text
         id="text3823"
         y="413.27667"
         x="274.06699"
         style="font-size:56px;font-style:normal;font-weight:normal;fill:black;fill-opacity:1;stroke:none;stroke-width:1px;stroke-linecap:butt;stroke-linejoin:miter;stroke-opacity:1;font-family:Arial Black"
         xml:space="preserve"><tspan
           y="413.27667"
           x="274.06699"
           id="tspan3825"
           sodipodi:role="line">N</tspan></text>
      <text
         id="text3831"
         y="549.09088"
         x="410.1752"
         style="font-size:56px;font-style:normal;font-weight:normal;fill:black;fill-opacity:1;stroke:none;stroke-width:1px;stroke-linecap:butt;stroke-linejoin:miter;stroke-opacity:1;font-family:Arial Black"
         xml:space="preserve"><tspan
           y="549.09088"
           x="410.1752"
           id="tspan3833"
           sodipodi:role="line">E</tspan></text>
      <g
         id="g8432">
        <path
           sodipodi:type="arc"
           style="opacity:0.97000002;fill:none;fill-opacity:1;stroke:black;stroke-width:26.54899979;stroke-linecap:square;stroke-linejoin:miter;stroke-miterlimit:4;stroke-dasharray:none;stroke-opacity:1"
           id="path2209"
           sodipodi:cx="465.68033"
           sodipodi:cy="517.99152"
           sodipodi:rx="79.802048"
           sodipodi:ry="79.802048"
           d="M 545.48238 517.99152 A 79.802048 79.802048 0 1 1  385.87828,517.99152 A 79.802048 79.802048 0 1 1  545.48238 517.99152 z"
           transform="matrix(0.759387,0,0,0.722648,-57.16595,152.0945)" />
        <path
           sodipodi:type="arc"
           style="opacity:0.97000002;fill:none;fill-opacity:1;stroke:black;stroke-width:70.65251958;stroke-linecap:square;stroke-linejoin:miter;stroke-miterlimit:4;stroke-dasharray:none;stroke-opacity:1"
           id="path3098"
           sodipodi:cx="465.68033"
           sodipodi:cy="517.99152"
           sodipodi:rx="79.802048"
           sodipodi:ry="79.802048"
           d="M 545.48238 517.99152 A 79.802048 79.802048 0 1 1  385.87828,517.99152 A 79.802048 79.802048 0 1 1  545.48238 517.99152 z"
           transform="matrix(0.184375,0,0,0.165506,211.2137,441.605)" />
        <path
           style="fill:none;fill-rule:evenodd;stroke:black;stroke-width:5.5;stroke-linecap:butt;stroke-linejoin:miter;stroke-miterlimit:4;stroke-dasharray:none;stroke-opacity:1"
           d="M 296.73231,544.41218 L 296.73231,584.06066 L 296.73231,584.06066"
           id="path5759" />
        <path
           style="fill:none;fill-rule:evenodd;stroke:black;stroke-width:5.5;stroke-linecap:butt;stroke-linejoin:miter;stroke-miterlimit:4;stroke-dasharray:none;stroke-opacity:1"
           d="M 296.42857,468.60937 L 296.42857,508.25785 L 296.42857,508.25785"
           id="path8418" />
        <path
           style="fill:none;fill-rule:evenodd;stroke:black;stroke-width:5.5;stroke-linecap:butt;stroke-linejoin:miter;stroke-miterlimit:4;stroke-dasharray:none;stroke-opacity:1"
           d="M 354.4671,527.71932 L 314.81862,527.71932 L 314.81862,527.71932"
           id="path8420" />
        <path
           style="fill:none;fill-rule:evenodd;stroke:black;stroke-width:5.5;stroke-linecap:butt;stroke-linejoin:miter;stroke-miterlimit:4;stroke-dasharray:none;stroke-opacity:1"
           d="M 277.39848,526.6479 L 237.75,526.6479 L 237.75,526.6479"
           id="path8422" />
        <path
           style="fill:none;fill-rule:evenodd;stroke:black;stroke-width:5.5;stroke-linecap:butt;stroke-linejoin:miter;stroke-miterlimit:4;stroke-dasharray:none;stroke-opacity:1"
           d="M 257.75,487.63005 L 285.7857,515.66575 L 285.7857,515.66575"
           id="path8424" />
        <path
           style="fill:none;fill-rule:evenodd;stroke:black;stroke-width:5.5;stroke-linecap:butt;stroke-linejoin:miter;stroke-miterlimit:4;stroke-dasharray:none;stroke-opacity:1"
           d="M 309.2143,537.98719 L 337.25,566.02289 L 337.25,566.02289"
           id="path8426" />
        <path
           style="fill:none;fill-rule:evenodd;stroke:black;stroke-width:5.5;stroke-linecap:butt;stroke-linejoin:miter;stroke-miterlimit:4;stroke-dasharray:none;stroke-opacity:1"
           d="M 285.7857,534.05862 L 257.75,562.09432 L 257.75,562.09432"
           id="path8428" />
        <path
           style="fill:none;fill-rule:evenodd;stroke:black;stroke-width:5.5;stroke-linecap:butt;stroke-linejoin:miter;stroke-miterlimit:4;stroke-dasharray:none;stroke-opacity:1"
           d="M 337.25,486.20148 L 309.2143,514.23718 L 309.2143,514.23718"
           id="path8430" />
      </g>
      <path
         id="path8446"
         d="M 286.26606,459.20305 L 286.26606,430.25831 L 297.34173,415.78595 L 308.41739,430.25831 L 308.41739,459.20305 L 286.26606,459.20305 z "
         style="fill:black;fill-opacity:1;fill-rule:evenodd;stroke:black;stroke-width:2.53212357px;stroke-linecap:butt;stroke-linejoin:miter;stroke-opacity:1" />
      <path
         id="path8450"
         d="M 365.31685,518.62824 L 394.26158,518.62824 L 408.73394,529.70391 L 394.26158,540.77958 L 365.31685,540.77958 L 365.31685,518.62824 z "
         style="fill:black;fill-opacity:1;fill-rule:evenodd;stroke:black;stroke-width:2.53212357px;stroke-linecap:butt;stroke-linejoin:miter;stroke-opacity:1" />
      <path
         id="path8452"
         d="M 307.55545,589.72204 L 307.55545,618.66678 L 296.47977,633.13914 L 285.40411,618.66678 L 285.40411,589.72204 L 307.55545,589.72204 z "
         style="fill:black;fill-opacity:1;fill-rule:evenodd;stroke:black;stroke-width:2.53212357px;stroke-linecap:butt;stroke-linejoin:miter;stroke-opacity:1" />
      <path
         id="path8454"
         d="M 227.77969,537.65344 L 198.83494,537.65344 L 184.36259,526.57776 L 198.83494,515.50211 L 227.77969,515.50211 L 227.77969,537.65344 z "
         style="fill:black;fill-opacity:1;fill-rule:evenodd;stroke:black;stroke-width:2.53212357px;stroke-linecap:butt;stroke-linejoin:miter;stroke-opacity:1" />
    </g>
  </g>
</svg>
